src/assets/icons/table-default.svg

<?xml version="1.0" standalone="no"?><!DOCTYPE svg PUBLIC "-//W3C//DTD SVG 1.1//EN" "http://www.w3.org/Graphics/SVG/1.1/DTD/svg11.dtd"><svg t="1537496871810" class="icon" style="" viewBox="0 0 1024 1024" version="1.1" xmlns="http://www.w3.org/2000/svg" p-id="1966" xmlns:xlink="http://www.w3.org/1999/xlink" width="128" height="128"><defs><style type="text/css"></style></defs><path d="M102.4 204.8C102.4 185.9584 117.69173333 170.66666667 136.53333333 170.66666667l750.93333334 0C906.30826667 170.66666667 921.6 185.9584 921.6 204.8l0 0C921.6 223.6416 906.30826667 238.93333333 887.46666667 238.93333333l-750.93333334 0C117.69173333 238.93333333 102.4 223.6416 102.4 204.8L102.4 204.8zM102.4 409.6C102.4 428.4416 117.69173333 443.73333333 136.53333333 443.73333333l750.93333334 0C906.30826667 443.73333333 921.6 428.4416 921.6 409.6l0 0C921.6 390.7584 906.30826667 375.46666667 887.46666667 375.46666667l-750.93333334 0C117.69173333 375.46666667 102.4 390.7584 102.4 409.6L102.4 409.6zM102.4 614.4C102.4 633.2416 117.69173333 648.53333333 136.53333333 648.53333333l750.93333334 0c18.8416 0 34.13333333-15.29173333 34.13333333-34.13333333l0 0C921.6 595.5584 906.30826667 580.26666667 887.46666667 580.26666667l-750.93333334 0C117.69173333 580.26666667 102.4 595.5584 102.4 614.4L102.4 614.4zM102.4 819.2C102.4 838.0416 117.69173333 853.33333333 136.53333333 853.33333333l750.93333334 0c18.8416 0 34.13333333-15.29173333 34.13333333-34.13333333l0 0c0-18.8416-15.29173333-34.13333333-34.13333333-34.13333333l-750.93333334 0C117.69173333 785.06666667 102.4 800.3584 102.4 819.2L102.4 819.2z" p-id="1967"></path></svg>

<svg class="icon" viewBox="0 0 1024 1024" xmlns="http://www.w3.org/2000/svg" width="128" height="128"><defs><style/></defs><path d="M102.4 204.8c0-18.842 15.292-34.133 34.133-34.133h750.934c18.841 0 34.133 15.291 34.133 34.133 0 18.842-15.292 34.133-34.133 34.133H136.533c-18.841 0-34.133-15.291-34.133-34.133zm0 204.8c0 18.842 15.292 34.133 34.133 34.133h750.934c18.841 0 34.133-15.291 34.133-34.133 0-18.842-15.292-34.133-34.133-34.133H136.533c-18.841 0-34.133 15.291-34.133 34.133zm0 204.8c0 18.842 15.292 34.133 34.133 34.133h750.934c18.841 0 34.133-15.291 34.133-34.133 0-18.842-15.292-34.133-34.133-34.133H136.533c-18.841 0-34.133 15.291-34.133 34.133zm0 204.8c0 18.842 15.292 34.133 34.133 34.133h750.934c18.841 0 34.133-15.291 34.133-34.133 0-18.842-15.292-34.133-34.133-34.133H136.533c-18.841 0-34.133 15.291-34.133 34.133z"/></svg>
